resources/svg/backspace-o.svg

<svg xmlns="http://www.w3.org/2000/svg" viewBox="0 0 15 15" fill="none"><path d="M4.5 12.5L4.10957 12.8123C4.20445 12.931 4.34811 13 4.5 13V12.5ZM0.5 7.5L0.109566 7.18765C-0.0365219 7.37026 -0.0365219 7.62974 0.109566 7.81235L0.5 7.5ZM4.5 2.5V2C4.34811 2 4.20445 2.06904 4.10957 2.18765L4.5 2.5ZM14 3.5V11.5H15V3.5H14ZM13.5 12H4.5V13H13.5V12ZM4.89043 12.1877L0.890434 7.18765L0.109566 7.81235L4.10957 12.8123L4.89043 12.1877ZM0.890434 7.81235L4.89043 2.81235L4.10957 2.18765L0.109566 7.18765L0.890434 7.81235ZM4.5 3H13.5V2H4.5V3ZM14 11.5C14 11.7761 13.7761 12 13.5 12V13C14.3284 13 15 12.3284 15 11.5H14ZM15 3.5C15 2.67157 14.3284 2 13.5 2V3C13.7761 3 14 3.22386 14 3.5H15ZM6.14645 5.85355L10.1464 9.85355L10.8536 9.14645L6.85355 5.14645L6.14645 5.85355ZM10.1464 5.14645L6.14645 9.14645L6.85355 9.85355L10.8536 5.85355L10.1464 5.14645Z" fill="black"/></svg>

<svg xmlns="http://www.w3.org/2000/svg" viewBox="0 0 15 15" fill="none"><path d="M4.5 12.5l-.39.312A.5.5 0 004.5 13v-.5zm-4-5l-.39-.312a.5.5 0 000 .624L.5 7.5zm4-5V2a.5.5 0 00-.39.188l.39.312zm9.5 1v8h1v-8h-1zm-.5 8.5h-9v1h9v-1zm-8.61.188l-4-5-.78.624 4 5 .78-.624zm-4-4.376l4-5-.78-.624-4 5 .78.624zM4.5 3h9V2h-9v1zm9.5 8.5a.5.5 0 01-.5.5v1a1.5 1.5 0 001.5-1.5h-1zm1-8A1.5 1.5 0 0013.5 2v1a.5.5 0 01.5.5h1zM6.146 5.854l4 4 .708-.708-4-4-.708.708zm4-.708l-4 4 .708.708 4-4-.708-.708z" fill="currentColor"/></svg>
